polaris-icons/icons/newicons/LinearModelMinor.svg

<svg width="20" height="20" viewBox="0 0 20 20" fill="none" xmlns="http://www.w3.org/2000/svg">
<path d="M4.75 10.25C4.75 9.83579 4.41421 9.5 4 9.5C3.58579 9.5 3.25 9.83579 3.25 10.25V16.25C3.25 16.6642 3.58579 17 4 17C4.41421 17 4.75 16.6642 4.75 16.25V10.25Z" fill="black"/>
<path d="M16.75 10.25C16.75 9.83579 16.4142 9.5 16 9.5C15.5858 9.5 15.25 9.83579 15.25 10.25V16.25C15.25 16.6642 15.5858 17 16 17C16.4142 17 16.75 16.6642 16.75 16.25V10.25Z" fill="black"/>
<path d="M8 9.5C8.41421 9.5 8.75 9.83579 8.75 10.25V16.25C8.75 16.6642 8.41421 17 8 17C7.58579 17 7.25 16.6642 7.25 16.25V10.25C7.25 9.83579 7.58579 9.5 8 9.5Z" fill="black"/>
<path d="M12.75 10.25C12.75 9.83579 12.4142 9.5 12 9.5C11.5858 9.5 11.25 9.83579 11.25 10.25V16.25C11.25 16.6642 11.5858 17 12 17C12.4142 17 12.75 16.6642 12.75 16.25V10.25Z" fill="black"/>
</svg>

<svg viewBox="0 0 20 20" fill="none" xmlns="http://www.w3.org/2000/svg"><path d="M4.75 10.25a.75.75 0 0 0-1.5 0v6a.75.75 0 0 0 1.5 0v-6Z" fill="#5C5F62"/><path d="M16.75 10.25a.75.75 0 0 0-1.5 0v6a.75.75 0 0 0 1.5 0v-6Z" fill="#5C5F62"/><path d="M8 9.5a.75.75 0 0 1 .75.75v6a.75.75 0 0 1-1.5 0v-6a.75.75 0 0 1 .75-.75Z" fill="#5C5F62"/><path d="M12.75 10.25a.75.75 0 0 0-1.5 0v6a.75.75 0 0 0 1.5 0v-6Z" fill="#5C5F62"/></svg>
